X:176
T:Successful Campaign or... THO3.176, The
T:Bath Frolic THO3.176
O:England;London
M:C
L:1/8
Z:vmp. Peter Dunk 2011.from a transcription by Fynn Titford-Mock 2006-9
B:Thompson's Compleat Collection of 200 Favourite Country Dances Vol. III.1765-72
Q:1/4=140
K:G
G2 -GB A2 -Ac|BGBd g4|gfed edcB|cBAG GFED|\
G2 -GB A2 -Ac|BGBd g4|gfed efeg|fde^c d4:|
|:d2 d=f e2d2|c2B2c2A2|c2 ce d2c2|B2A2B2G2|\
G2 -GB A2 -Ac|BGBd g4|gfed edcB|AGAB G4:|

